icons/archive.svg

<svg width="24" height="24" viewBox="0 0 24 24" fill="none" xmlns="http://www.w3.org/2000/svg">
<path fill-rule="evenodd" clip-rule="evenodd" d="M2 4C2 3.44772 2.44772 3 3 3H21C21.5523 3 22 3.44772 22 4V9C22 9.55228 21.5523 10 21 10V20C21 20.5523 20.5523 21 20 21H4C3.44772 21 3 20.5523 3 20V10C2.44772 10 2 9.55228 2 9V4ZM5 10V19H19V10H5ZM4 8V5H20V8H4ZM9 13C9 12.4477 9.44772 12 10 12H14C14.5523 12 15 12.4477 15 13C15 13.5523 14.5523 14 14 14H10C9.44772 14 9 13.5523 9 13Z" fill="black"/>
</svg>

<svg
  width="24"
  height="24"
  viewBox="0 0 24 24"
  xmlns="http://www.w3.org/2000/svg"
>
  <path
    fill-rule="evenodd"
    clip-rule="evenodd"
    d="M2 4a1 1 0 0 1 1-1h18a1 1 0 0 1 1 1v5a1 1 0 0 1-1 1v10a1 1 0 0 1-1 1H4a1 1 0 0 1-1-1V10a1 1 0 0 1-1-1V4zm3 6v9h14v-9H5zM4 8V5h16v3H4zm5 5a1 1 0 0 1 1-1h4a1 1 0 1 1 0 2h-4a1 1 0 0 1-1-1z"
  />
</svg>
